public/logo-dark.svg

<svg width="73" height="80" viewBox="0 0 73 80" fill="none" xmlns="http://www.w3.org/2000/svg">
<path d="M20.5815 65.3808C20.3276 65.3812 19.6434 65.021 18.529 64.3001L16.0657 62.8685C15.7724 62.6737 15.6253 62.2442 15.6242 61.5802C15.6198 58.8458 19.2359 48.4201 26.4725 30.303L27.4941 27.9283C27.2793 27.9482 26.4508 28.9553 25.0087 30.9498C24.3072 31.9275 23.5763 32.915 22.8162 33.9123C20.9451 36.3568 19.6092 37.5796 18.8084 37.5809C18.6912 37.5811 18.5837 37.5519 18.486 37.4935C17.6454 37.0066 16.9123 36.6074 16.2868 36.2959C15.2313 35.8093 14.4689 35.3417 13.9994 34.8933C13.5299 34.4448 13.2943 33.6932 13.2927 32.6385C13.2911 31.6815 13.4549 30.3043 13.7841 28.5069C13.4723 28.9566 11.965 32.9239 9.26213 40.4087C8.52308 42.363 7.75479 44.3564 6.95726 46.389C5.051 51.2553 3.8049 53.6889 3.21896 53.6899C3.14084 53.69 3.07242 53.6511 3.0137 53.573C1.76079 51.7586 0.958238 50.6564 0.60605 50.2663C0.351612 49.9347 0.22433 49.7298 0.224205 49.6517C0.554075 48.3035 3.12099 41.3072 7.92494 28.6628C11.1933 20.6497 13.4523 16.4664 14.7017 16.1128C15.0336 16.0342 15.8335 15.4567 17.1013 14.3805C17.5303 13.9501 17.8424 13.7347 18.0377 13.7344C18.2721 13.7341 18.4093 14.0268 18.4493 14.6127C18.5481 15.2961 18.7342 15.6474 19.0076 15.6665C19.3788 15.7049 19.5644 15.773 19.5646 15.8707C19.5648 15.9683 19.5161 16.0953 19.4187 16.2518C19.3408 16.3886 19.2532 16.584 19.156 16.8381C19.0588 17.0922 19.0104 17.4048 19.011 17.7758C19.0114 18.0102 19.0411 18.2641 19.1001 18.5374C19.2774 19.4746 19.367 20.5389 19.3689 21.7304C19.3718 23.5272 19.2095 25.8517 18.8821 28.7038C18.8051 29.4071 18.7667 29.8661 18.7671 30.0809C19.2936 29.5528 20.0148 28.6629 20.9308 27.4115C24.6137 22.1321 29.6051 16.7725 35.905 11.3327C36.49 10.7459 36.8899 10.4523 37.1048 10.4519C37.3587 10.4515 37.5643 10.7832 37.7216 11.447C37.8984 12.0913 38.0566 13.3117 38.1962 15.1084C38.1982 16.3584 37.7517 18.0681 36.8568 20.2375C35.9814 22.4068 34.8916 24.9086 33.5876 27.7427C31.68 31.8278 29.19 38.033 26.1174 46.3582C23.0643 54.6835 21.3067 60.8875 20.8445 64.9702C20.8449 65.2437 20.7573 65.3805 20.5815 65.3808Z" fill="white"/>
<path d="M51.096 65.7324C50.4714 65.7554 49.776 64.1198 49.0096 60.8254C48.873 60.3028 48.7922 59.6999 48.767 59.0167C48.6425 55.6401 49.8615 50.2693 52.424 42.9043L52.897 41.421C52.8646 41.0704 52.0871 40.9232 50.5647 40.9793C49.0618 41.0347 47.4071 41.213 45.6006 41.5141C43.0957 41.9582 41.771 42.3393 41.6263 42.6573L40.3516 46.2517C39.841 47.7754 39.5918 48.7032 39.604 49.035C39.6091 49.1716 39.673 49.3158 39.7959 49.4677C40.6306 50.375 41.0661 51.0528 41.1021 51.501C41.1086 51.6767 41.0753 51.8343 41.0023 51.9738C40.6725 52.5723 40.2738 52.8899 39.8061 52.9267C39.1815 52.9497 37.9241 53.0351 36.0337 53.183C35.4677 53.2039 34.9291 53.1748 34.4181 53.096C33.8875 53.0178 33.6074 52.5786 33.5779 51.7784C33.5405 50.7634 34.0491 48.6534 35.1036 45.4483C35.1029 45.4288 35.1119 45.4089 35.1307 45.3887C35.1683 45.3482 35.1864 45.3085 35.185 45.2694L35.1524 45.1827C34.958 45.2094 34.7935 45.2545 34.6591 45.3181C34.5434 45.3615 34.4465 45.3846 34.3684 45.3875C34.2318 45.3925 34.1314 45.318 34.067 45.1641L32.9409 42.4498C32.4719 41.3921 32.2227 40.727 32.1931 40.4545C32.1866 40.2788 32.3084 40.1375 32.5586 40.0306C34.5315 38.9416 36.032 38.2901 37.0599 38.0763C37.3506 38.007 37.5823 37.9301 37.755 37.8455C37.9466 37.7407 38.2558 37.1137 38.6825 35.9644C39.9474 32.6343 41.8612 28.3519 44.4241 23.1172C47.8048 16.2106 49.8457 12.7249 50.5469 12.6599C50.6055 12.6578 50.8487 12.8931 51.2765 13.366C52.3982 14.6341 53.134 15.506 53.4838 15.9818C53.8328 16.438 54.0142 16.8515 54.0279 17.2223C54.0394 17.5346 53.8246 18.0702 53.3835 18.8292C52.7892 19.672 52.0194 21.3225 51.0741 23.7809C51.0416 23.958 50.9472 24.0494 50.7911 24.0552L50.4983 24.066C50.0103 24.0839 48.8335 26.0916 46.9677 30.0888C45.1736 33.9075 44.2819 35.9632 44.2927 36.2559C46.1636 36.1088 47.7626 36.0108 49.0898 35.9619C50.5537 35.9079 51.668 35.9157 52.4328 35.9852C52.9612 36.0048 53.4011 36.0082 53.7524 35.9952C54.4746 35.9686 54.9467 35.7851 55.1686 35.4446C55.3906 35.1042 55.6513 34.4887 55.9508 33.5981C56.8621 30.7501 58.956 26.0507 62.2326 19.4998C64.6168 14.7212 65.952 12.2387 66.2383 12.0522C66.3309 11.912 66.4162 11.8405 66.4942 11.8376C66.7089 11.8297 68.1745 12.3522 70.8909 13.4052C71.0297 13.4587 71.1027 13.5831 71.1099 13.7782C71.1343 14.4419 70.149 16.6085 68.154 20.2783C66.8191 22.7705 65.2889 25.7977 63.5635 29.3598C59.3512 38.0951 56.3059 46.9437 54.4277 55.9057C54.0392 57.5618 53.8551 58.6631 53.8752 59.2096C53.886 59.5023 53.9518 59.6954 54.0725 59.7886C54.2127 59.8812 54.401 59.9524 54.6374 60.0023C55.2886 60.1738 55.6284 60.3762 55.6565 60.6097C55.6666 60.883 55.2382 61.4558 54.3713 62.3282C53.7307 62.9772 52.9712 63.8456 52.0927 64.9334C51.7398 65.435 51.4076 65.7013 51.096 65.7324Z" fill="white"/>
</svg>

<svg xmlns="http://www.w3.org/2000/svg" width="73" height="80" fill="none" viewBox="0 0 73 80"><path fill="#fff" d="M20.581 65.38c-.253.001-.938-.359-2.052-1.08l-2.463-1.431c-.294-.195-.44-.625-.442-1.289-.004-2.734 3.612-13.16 10.848-31.277l1.022-2.375c-.215.02-1.043 1.027-2.485 3.022a127.74 127.74 0 0 1-2.193 2.962c-1.87 2.445-3.207 3.668-4.008 3.669a.615.615 0 0 1-.322-.088 40.586 40.586 0 0 0-2.2-1.197c-1.055-.487-1.817-.954-2.287-1.403-.47-.448-.705-1.2-.706-2.255-.002-.956.162-2.334.491-4.131-.312.45-1.819 4.417-4.522 11.902a518.41 518.41 0 0 1-2.305 5.98c-1.906 4.866-3.152 7.3-3.738 7.3-.078.001-.147-.038-.205-.116C1.76 51.759.958 50.656.606 50.266c-.254-.331-.382-.536-.382-.614.33-1.349 2.897-8.345 7.7-20.99 3.27-8.012 5.528-12.196 6.778-12.55.332-.078 1.132-.655 2.4-1.731.428-.43.74-.646.936-.647.234 0 .371.293.411.879.1.683.285 1.034.559 1.053.37.039.556.107.557.205 0 .097-.049.224-.146.38a4.458 4.458 0 0 0-.263.587c-.097.254-.146.567-.145.938 0 .234.03.488.09.761.176.938.266 2.002.268 3.193.003 1.797-.16 4.122-.487 6.974-.077.703-.115 1.162-.115 1.377.527-.528 1.248-1.418 2.164-2.67 3.683-5.279 8.674-10.639 14.974-16.078.585-.587.985-.88 1.2-.881.254 0 .46.331.617.995.176.644.335 1.865.474 3.661.002 1.25-.444 2.96-1.34 5.13-.875 2.169-1.964 4.67-3.268 7.505-1.908 4.085-4.398 10.29-7.47 18.615-3.054 8.326-4.811 14.53-5.273 18.612 0 .274-.088.41-.264.41Zm30.515.352c-.625.023-1.32-1.612-2.086-4.907a8.42 8.42 0 0 1-.243-1.808c-.125-3.377 1.094-8.748 3.657-16.113l.473-1.483c-.032-.35-.81-.498-2.332-.442-1.503.056-3.158.234-4.964.535-2.505.444-3.83.825-3.975 1.143l-1.274 3.595c-.511 1.523-.76 2.451-.748 2.783.005.137.069.28.192.433.835.907 1.27 1.585 1.306 2.033a.928.928 0 0 1-.1.473c-.33.598-.728.916-1.196.953-.624.023-1.882.108-3.772.256a8.527 8.527 0 0 1-1.616-.087c-.53-.078-.81-.517-.84-1.318-.038-1.015.471-3.125 1.526-6.33-.001-.02.008-.04.027-.06.037-.04.055-.08.054-.119l-.033-.086a1.696 1.696 0 0 0-.493.135.964.964 0 0 1-.29.07c-.137.005-.238-.07-.302-.224l-1.126-2.714c-.47-1.058-.718-1.723-.748-1.995-.006-.176.115-.317.366-.424 1.973-1.09 3.473-1.74 4.5-1.955a3.44 3.44 0 0 0 .696-.23c.192-.105.5-.732.927-1.882 1.265-3.33 3.18-7.612 5.742-12.847 3.38-6.906 5.422-10.392 6.123-10.457.059-.002.302.233.73.706 1.121 1.268 1.857 2.14 2.207 2.616.349.456.53.87.544 1.24.011.313-.203.848-.645 1.607-.594.843-1.364 2.494-2.309 4.952-.032.177-.127.268-.283.274l-.293.011c-.488.018-1.664 2.026-3.53 6.023-1.794 3.819-2.686 5.874-2.675 6.167 1.87-.147 3.47-.245 4.797-.294 1.464-.054 2.578-.046 3.343.023.528.02.968.023 1.32.01.722-.026 1.194-.21 1.416-.55.222-.34.482-.956.782-1.847.911-2.848 3.005-7.547 6.282-14.098 2.384-4.779 3.719-7.261 4.005-7.448.093-.14.178-.211.256-.214.215-.008 1.68.514 4.397 1.567.139.054.212.178.219.373.024.664-.961 2.83-2.956 6.5-1.335 2.492-2.865 5.52-4.59 9.082-4.213 8.735-7.258 17.584-9.136 26.546-.389 1.656-.573 2.757-.553 3.304.011.292.077.485.197.579.14.092.329.163.565.213.652.172.991.374 1.02.608.01.273-.419.846-1.286 1.718-.64.65-1.4 1.518-2.278 2.605-.353.502-.685.768-.997.8Z"/></svg>
